X:542
T: "Vorsicht"
N: Z1222
O: Europa, Mitteleuropa, Schweiz; Elsass
R: Liebes - Lied
M: 3/4
L: 1/4
K: Bb
B3 | dfe | edc | BAG | F2z |
cde | def | c3 |
B3 | def | edc | BAG | F2z |
B3 | cde | def | B3

@@@ Tune index: 10300
